dist/assets/img/vkontakte.svg

<svg width="25" height="25" viewBox="0 0 25 25" fill="none" xmlns="http://www.w3.org/2000/svg">
<path fill-rule="evenodd" clip-rule="evenodd" d="M1.75417 1.75417C0 3.50833 0 6.3325 0 11.9792V13.0208C0 18.6667 0 21.4917 1.75417 23.2458C3.50833 25 6.3325 25 11.9792 25H13.0208C18.6667 25 21.4917 25 23.2458 23.2458C25 21.4917 25 18.6675 25 13.0208V11.9792C25 6.33333 25 3.50833 23.2458 1.75417C21.4917 0 18.6675 0 13.0208 0H11.9792C6.33333 0 3.50833 0 1.75417 1.75417ZM4.94832 7.8125H6.77082C7.23666 7.8125 7.41166 8.01667 7.58666 8.52167C8.47832 11.1183 9.98166 13.3883 10.5992 13.3883C10.8317 13.3883 10.9375 13.2817 10.9375 12.6925V10.0083C10.8958 9.24423 10.6288 8.9137 10.4311 8.66889C10.309 8.51776 10.2133 8.3993 10.2133 8.23167C10.2133 8.0275 10.3875 7.8125 10.6767 7.8125H13.5417C13.9283 7.8125 14.0625 8.01917 14.0625 8.4825V12.0942C14.0625 12.48 14.23 12.6158 14.3458 12.6158C14.5775 12.6158 14.7708 12.48 15.1958 12.055C16.5092 10.5875 17.4358 8.32833 17.4358 8.32833C17.5517 8.0575 17.7658 7.8125 18.2292 7.8125H20.0517C20.6033 7.8125 20.72 8.09667 20.6033 8.4825C20.3717 9.545 18.1508 12.6733 18.1508 12.6733C17.9575 12.9825 17.88 13.1367 18.1508 13.4842C18.2464 13.6181 18.4503 13.8179 18.6834 14.0464C18.9219 14.2801 19.1909 14.5438 19.4058 14.7975C20.1892 15.6783 20.7792 16.4217 20.9433 16.9333C21.0942 17.4475 20.8333 17.7083 20.3125 17.7083H18.4892C18.001 17.7083 17.7554 17.435 17.2243 16.8438C16.9992 16.5932 16.7228 16.2856 16.355 15.9175C15.2725 14.875 14.81 14.74 14.5392 14.74C14.1725 14.74 14.0625 14.8442 14.0625 15.365V17C14.0625 17.4475 13.9192 17.7083 12.76 17.7083C10.8292 17.7083 8.70666 16.5358 7.20082 14.3725C4.94082 11.2058 4.32332 8.81083 4.32332 8.32833C4.32332 8.0575 4.42749 7.8125 4.94832 7.8125Z" fill="#A7A7A7"/>
</svg>

<svg width="25" height="25" fill="none" xmlns="http://www.w3.org/2000/svg"><path fill-rule="evenodd" clip-rule="evenodd" d="M1.754 1.754C0 3.508 0 6.332 0 11.98v1.042c0 5.646 0 8.47 1.754 10.225C3.508 25 6.332 25 11.98 25h1.042c5.646 0 8.47 0 10.225-1.754C25 21.492 25 18.668 25 13.02v-1.042c0-5.646 0-8.47-1.754-10.225C21.492 0 18.668 0 13.02 0h-1.042C6.333 0 3.51 0 1.754 1.754Zm3.194 6.058h1.823c.466 0 .64.205.816.71.891 2.596 2.395 4.866 3.012 4.866.233 0 .338-.106.338-.695v-2.685c-.041-.764-.308-1.094-.506-1.34-.122-.15-.218-.269-.218-.436 0-.204.175-.42.464-.42h2.865c.386 0 .52.207.52.67v3.612c0 .386.168.522.284.522.232 0 .425-.136.85-.561 1.313-1.467 2.24-3.727 2.24-3.727.116-.27.33-.515.793-.515h1.823c.551 0 .668.284.551.67-.231 1.062-2.452 4.19-2.452 4.19-.194.31-.271.464 0 .811.095.134.3.334.532.562.239.234.508.498.723.752.783.88 1.373 1.624 1.537 2.135.151.515-.11.775-.63.775h-1.824c-.488 0-.734-.273-1.265-.864-.225-.25-.501-.558-.869-.927-1.082-1.042-1.545-1.177-1.816-1.177-.367 0-.476.104-.476.625V17c0 .448-.144.708-1.303.708-1.93 0-4.053-1.172-5.56-3.335-2.26-3.167-2.877-5.562-2.877-6.045 0-.27.104-.515.625-.515Z" fill="#A7A7A7"/></svg>
